X:76
T:Will You Come Down to Limerick?
T:Kitty Come Down to Limerick
T:Munster Gimlet, The
R:slip jig
H:See also #21, #22
Z:id:hn-slipjig-76
M:9/8
K:G
d |: cAG GDG ~G2d | cAG GDE FAd | cAG GDG ~G2A |1 FAd fed cAd :|2 FAd fed cAF ||
GBd gaf ~g2e | def gbg afd | cde fge f2d | cde fed cAF |
GBd gaf ~g2e | def gbg fga | bgg agf geg | fed cAG Fdc ||
BGB AFA ~G3 | ~B3 GBd cAc | BGB cAF G2A | FAd fed cAd |
~B3 ~A3 ~G3 | ~B3 GBd c2d | BGB cAF G2A | FAd fed cA ||
W:Kitty come down, come down,
W:Kitty come down to Limerick.
W:I knew by the glint in her eye
W:That she wanted a touch of the gimlet!
<end>
<start>
